X: 391
T: Bread & Cheese to Roary
R: reel
M: C
L: 1/8
Z: 2012 John Chambers <jc:trillian.mit.edu>
B: J. Anderson "Budget of Strathspeys, Reels and Country Dances" (Early 1800s) p.39 #1
F: http://imslp.org/wiki/Anderson%27s_Budget_of_Strathspeys,_Reels_and_Country_Dances_(Various)
K: G
c |\
BGGA GAGc | BGGd gdec | BGGA GAGc | AFFA c2(cd) :|
Bdde cdcA | Bdde fdgd | Bdde cdcB | AGFA c2(BA) |
Bdde cdcA | Bdde fdgd | gaeg dgBd | AFFA c2d |]

%%sep 2 1 500
%%sep 1 1 500

